!!!!SEGMENT: Ano2008-Collegerunt_pontifices
!!!id: Ano2008
!!!AGN: Motet
!!!voices: 4
!!!COM: Anonymous
!!!OTL: Collegerunt pontifices
**kern	**text	**kern	**text	**kern	**text	**kern	**text
*part4	*part4	*part3	*part3	*part2	*part2	*part1	*part1
*staff4	*staff4	*staff3	*staff3	*staff2	*staff2	*staff1	*staff1
*I"Bassus	*	*I"Tenor	*	*I"Altus	*	*I"Superius	*
*I'B	*	*I'T	*	*I'A	*	*I'S	*
*clefF4	*	*clefGv2	*	*clefGv2	*	*clefG2	*
*	*	*	*	*	*	*	*
*k[]	*	*k[]	*	*k[]	*	*k[]	*
*	*	*	*	*	*	*	*
*M2/1	*	*M2/1	*	*M2/1	*	*M2/1	*
*met(C|)	*	*met(C|)	*	*met(C|)	*	*met(C|)	*
!!section: Prima pars: Collegerunt pontifices
!!!OMD: Prima pars: Collegerunt pontifices
0r	.	1.d	Col-	0r	.	0r	.
.	.	2d	-le-	.	.	.	.
=1	=1	=1	=1	=1	=1	=1	=1
0r	.	1d	-ge-	1r	.	0r	.
.	.	1G	-runt	[1g	Col-	.	.
=2	=2	=2	=2	=2	=2	=2	=2
0r	.	2.c	pon-	2g]	.	0r	.
.	.	.	.	2g	-le-	.	.
.	.	4d	.	.	.	.	.
.	.	4e	.	1g	-ge-	.	.
.	.	4f	.	.	.	.	.
.	.	[2g	-ti-	.	.	.	.
=3	=3	=3	=3	=3	=3	=3	=3
1r	.	4g]	.	2.c	-runt	1.cc	Col-
.	.	4f	.	.	.	.	.
.	.	2.e	-fi-	.	.	.	.
.	.	.	.	4d	.	.	.
[1c	Col-	.	.	4e	.	.	.
.	.	4d	.	4f	.	.	.
.	.	4c	.	[2g	.	2cc	-le-
.	.	4B	.	.	.	.	.
=4	=4	=4	=4	=4	=4	=4	=4
2c]	.	1A	-ces,	4g]	.	1cc	-ge-
.	.	.	.	4f	.	.	.
2c	-le-	.	.	4e	.	.	.
.	.	.	.	4d	.	.	.
1c	-ge-	1r	.	1e	.	1g	-runt
=5	=5	=5	=5	=5	=5	=5	=5
1F	-runt	1c	pon-	1f	pon-	1a	pon-
1G	pon-	2B	-ti-	2d	-ti-	1b	.
.	.	2d	.	2B	-fi-	.	.
=6	=6	=6	=6	=6	=6	=6	=6
2A	-ti-	2c	.	1A	-ces,	1.cc	-ti-
2.F	-fi-	1f	.	.	.	.	.
.	.	.	.	1r	.	.	.
4G	.	.	.	.	.	.	.
[2A	.	[2e	.	.	.	2a	-fi-
=7	=7	=7	=7	=7	=7	=7	=7
2A]	.	2e]	.	2r	.	1a	-ces,
2D	.	2d	-fi-	2d	pon-	.	.
*	*	*	*	*	*	*	*
[1D	-ces,	1d	-ces,	2.f	-ti-	[1dd	col-
.	.	.	.	4g	.	.	.
=8	=8	=8	=8	=8	=8	=8	=8
0D_	.	1.d	col-	1.a	.	2dd]	.
.	.	.	.	.	.	2dd	-le-
.	.	.	.	.	.	1dd	-ge-
.	.	2d	-le-	[2f	.	.	.
=9	=9	=9	=9	=9	=9	=9	=9
1D]	.	1d	-ge-	2f]	.	1a	-runt
.	.	.	.	4e	.	.	.
.	.	.	.	4d	.	.	.
1r	.	1A	-runt	1e	.	1cc	pon-
=10	=10	=10	=10	=10	=10	=10	=10
1r	.	1d	pon-	1f	-fi-	2a	-ti-
.	.	.	.	.	.	4b	.
.	.	.	.	.	.	4cc	.
[1G	col-	2.B	-ti-	1d	-ces,	4dd	.
.	.	.	.	.	.	4ee	.
.	.	.	.	.	.	[2dd	.
.	.	4c	.	.	.	.	.
=11	=11	=11	=11	=11	=11	=11	=11
2G]	.	2d	.	1.g	col-	4dd]	.
.	.	.	.	.	.	4cc	.
2G	-le-	2e	.	.	.	1cc	.
1G	-ge-	1d	-fi-	.	.	.	.
.	.	.	.	2g	-le-	2b	-fi-
=12	=12	=12	=12	=12	=12	=12	=12
1E	-runt	1c	-ces,	1g	-ge-	0cc	-ces
1F	pon-	2r	.	1c	-runt	.	.
.	.	2A	pon-	.	.	.	.
=13	=13	=13	=13	=13	=13	=13	=13
2G	.	2B	-ti-	2r	.	0r	.
1A	-ti-	2.c	.	2f	pon-	.	.
.	.	.	.	2e	-ti-	.	.
.	.	4A	.	.	.	.	.
2D	.	[2d	.	2d	-fi-	.	.
=14	=14	=14	=14	=14	=14	=14	=14
1A	-fi-	2d]	.	1e	-ces	2r	.
.	.	2c	-fi-	.	.	2cc	et
1D	-ces	[1d	-ces	1d	.	2b	Pha-
.	.	.	.	.	.	2a	-ri-
=15	=15	=15	=15	=15	=15	=15	=15
2r	.	1d]	.	2r	.	1b	-sae-
2G	et	.	.	2d	et	.	.
2.F	Pha-	1r	.	2f	Pha-	1a	-i,
.	.	.	.	2d	-ri-	.	.
4G	-ri-	.	.	.	.	.	.
=16	=16	=16	=16	=16	=16	=16	=16
1A	-sae-	2r	.	1c	-sae-	2r	.
.	.	2e	et	.	.	2cc	[et
1D	-i,	2f	Pha-	1d	-i,	2a	Pha-
.	.	2d	-ri-	.	.	[2dd	-ri-
=17	=17	=17	=17	=17	=17	=17	=17
2r	.	1e	-sae-	1r	.	2dd]	.
2A	et	.	.	.	.	2cc#i	-sae-
2B	Pha-	1d	-i,	2r	.	1dd	-i,]
2G	-ri-	.	.	2g	et	.	.
=18	=18	=18	=18	=18	=18	=18	=18
1A	-sae-	2r	.	2e	Pha-	0r	.
.	.	2c	Pha-	2f	-ri-	.	.
2G	-i,	2d	-ri-	2.g	-sae-	.	.
2c	pon-	[2e	-sae-	.	.	.	.
.	.	.	.	4f	.	.	.
=19	=19	=19	=19	=19	=19	=19	=19
2.c	-ti-	4e]	.	2.e	.	0r	.
.	.	4d	.	.	.	.	.
.	.	2.c	.	.	.	.	.
4B	-fi-	.	.	4d	.	.	.
2.A	-ces	.	.	2.c	.	.	.
.	.	4B	.	.	.	.	.
.	.	[2A	.	.	.	.	.
4G	et	.	.	4B	.	.	.
=20	=20	=20	=20	=20	=20	=20	=20
2F	Pha-	4A]	.	2A	.	1r	.
.	.	4G	.	.	.	.	.
2E	-ri-	1c	.	2G	.	.	.
1D	-sae-	.	.	1F	.	1dd	pon-
.	.	2B	.	.	.	.	.
=21	=21	=21	=21	=21	=21	=21	=21
0C	-i,	1c	-i,	2G	-i,	2.ee	-ti-
.	.	.	.	2g	pon-	.	.
.	.	.	.	.	.	4dd	-fi-
.	.	2r	.	2.g	-ti-	2.cc	-ces
.	.	2c	pon-	.	.	.	.
.	.	.	.	4f	.	4b	et
=22	=22	=22	=22	=22	=22	=22	=22
0r	.	2.c	-ti-	2e	.	2a	Pha-
.	.	.	.	2d	.	2g	-ri-
.	.	4B	-fi-	.	.	.	.
.	.	2A	-ces	2c	.	1f	-sae-
.	.	2A	et	2c	-fi-	.	.
=23	=23	=23	=23	=23	=23	=23	=23
2r	.	2G	Pha-	2d	-ces,	2g	-i,
2F	pon-	2c	-ri-	2f	pon-	2a	pon-
2.F	-ti-	2.c	-sae-	2.f	-ti-	2.a	-ti-
4F	-fi-	4c	.	4f	-fi-	4a	-fi-
=24	=24	=24	=24	=24	=24	=24	=24
2F	-ces	1c	-i,	2f	-ces	2a	-ces
2A	et	.	.	2c	et	2cc	et
2G	Pha-	2r	.	4d	Pha-	2b	Pha-
.	.	.	.	4e	.	.	.
2F	-ri-	2c	pon-	[2f	-ri-	2a	-ri-
=25	=25	=25	=25	=25	=25	=25	=25
1G	-sae-	2c	-ti-	2f]	.	1b	-sae-
.	.	2B	-fi-	2e	-sae-	.	.
1F	-i,	1c	-ces,	1f	-i,	2a	-i,
.	.	.	.	.	.	[2a	col-
=26	=26	=26	=26	=26	=26	=26	=26
0r	.	1d	.	2r	.	2a]	.
.	.	.	.	1d	col-	2a	-le-
.	.	1r	.	.	.	1dd	-ge-
.	.	.	.	2d	-le-	.	.
=27	=27	=27	=27	=27	=27	=27	=27
0r	.	1r	.	1g	-ge-	2b	-runt
.	.	.	.	.	.	2b	pon-
.	.	2r	.	2e	-runt	[1cc	-ti-
.	.	[2A	col-	2e	pon-	.	.
=28	=28	=28	=28	=28	=28	=28	=28
2r	.	2A]	.	1.f	-ti-	2cc]	.
1D	col-	2A	-le-	.	.	2a	-fi-
.	.	1d	-ge-	.	.	1a	-ces,
2D	-le-	.	.	2d	-fi-	.	.
=29	=29	=29	=29	=29	=29	=29	=29
1G	-ge-	2B	-runt	1d	-ces,	0r	.
.	.	2B	pon-	.	.	.	.
2E	-runt	[1c	-ti-	1r	.	.	.
2E	pon-	.	.	.	.	.	.
=30	=30	=30	=30	=30	=30	=30	=30
1.F	-ti-	2c]	.	1r	.	2r	.
.	.	2A	-fi-	.	.	1a	et
.	.	1A	-ces,	2r	.	.	.
2D	-fi-	.	.	[2d	et	2a	di-
=31	=31	=31	=31	=31	=31	=31	=31
1D	-ces,	1r	.	2d]	.	2.dd	-ce-
.	.	.	.	2d	di-	.	.
.	.	.	.	.	.	4cc	.
2r	.	2r	.	2.g	-ce-	2.b	.
[2G	et	2d	et	.	.	.	.
.	.	.	.	4f	.	4a	.
=32	=32	=32	=32	=32	=32	=32	=32
2G]	.	2.g	di-	2.e	.	1g	-bant,
2G	di-	.	.	.	.	.	.
.	.	4f	.	4d	.	.	.
2.c	-ce-	2.e	-ce-	2.c	.	2r	.
.	.	.	.	.	.	2g	et
4B	.	4d	.	4d	.	.	.
=33	=33	=33	=33	=33	=33	=33	=33
2.A	.	0c	-bant,	1e	.	2.cc	di-
4G	.	.	.	.	.	4b	.
2.F	.	.	.	1f	-bant,	2.a	-ce-
4E	.	.	.	.	.	4g	.
=34	=34	=34	=34	=34	=34	=34	=34
1D	-bant,	2d	et	1r	.	2.f	.
.	.	2A	di-	.	.	.	.
.	.	.	.	.	.	4e	.
2r	.	2B	-ce-	2r	.	4f	.
.	.	.	.	.	.	4g	.
2D	et	2d	.	2f	[et	[2a	.
=35	=35	=35	=35	=35	=35	=35	=35
2F	di-	2c	.	2f	di-	2a]	.
2G	.	2B	.	2e	.	1g	.
1D	-ce-	1A	.	1d	-ce-	.	.
.	.	.	.	.	.	2f#i	.
=36	=36	=36	=36	=36	=36	=36	=36
1G	-bant,	1G	-bant,	2B	.	1g	-bant,
.	.	.	.	2G	-bant,]	.	.
1C	‘Quid	1c	‘Quid	1g	‘Quid	1ee	‘Quid
=37	=37	=37	=37	=37	=37	=37	=37
1.C	fa-	1.c	fa-	1.g	fa-	1.ee	fa-
2C	-ci-	2c	-ci-	2g	-ci-	2ee	-ci-
=38	=38	=38	=38	=38	=38	=38	=38
1C	-mus?	1c	-mus?	1g	-mus?	1ee	-mus?
2r	.	2r	.	2r	.	2r	.
2C	Qui-	2c	Qui-	2G	Qui-	2ee	Qui-
=39	=39	=39	=39	=39	=39	=39	=39
2C	-a	2c	-a	2G	-a	2ee	-a
2C	hic	2c	hic	2G	hic	2ee	hic
1D	ho-	2A	ho-	1F	ho-	1ff	ho-
.	.	2B	.	.	.	.	.
=40	=40	=40	=40	=40	=40	=40	=40
1C	-mo	0c	-mo	2G	mo	1ee	-mo
.	.	.	.	1g	mul-	.	.
2r	.	.	.	.	.	2r	.
[2c	mul-	.	.	2g	-ta	[2ee	mul-
=41	=41	=41	=41	=41	=41	=41	=41
2c]	.	2r	.	2g	sig-	2ee]	.
2B	-ta	2d	mul-	2g	-na	2dd	-ta
2c	sig-	2c	-ta	2r	.	2ee	sig-
2G	-na	2B	sig-	[2g	fa-	[2dd	-na
=42	=42	=42	=42	=42	=42	=42	=42
1A	fa-	1c	-na	2g]	.	4dd]	.
.	.	.	.	.	.	4cc	.
.	.	.	.	2f	.	1cc	fa-
1G	-cit.	1d	fa-	1g	-cit.	.	.
.	.	.	.	.	.	2b	.
=43	=43	=43	=43	=43	=43	=43	=43
2r	.	1c	-cit.	2.g	Si	1cc	-cit.
1c	Si	.	.	.	.	.	.
.	.	.	.	4g	di-	.	.
.	.	2r	.	2g	-mit-	2r	.
2c	di-	[2c	Si	2g	-ti-	[2ee	Si
=44	=44	=44	=44	=44	=44	=44	=44
2c	-mit-	2c]	.	2g	-mus	2ee]	.
2c	-ti-	2c	di-	1g	e-	2ee	di-
2c	-mus	2c	-mit-	.	.	2ee	-mit-
[2C	e-	2c	-ti-	2g	-um	2ee	-ti-
=45	=45	=45	=45	=45	=45	=45	=45
2C]	.	2c	-mus	1g	sic,	2ee	-mus
2C	-um	1c	e-	.	.	1ee	e-
1C	sic,	.	.	2r	.	.	.
.	.	2c	-um	[2g	o-	2ee	-um
=46	=46	=46	=46	=46	=46	=46	=46
2r	.	1c	sic,	2g]	.	1ee	sic,
1c	o-	.	.	2g	-mnes	.	.
.	.	2r	.	2g	cre-	2r	.
2c	-mnes	[2c	o-	2g	-dent	[2ee	o-
=47	=47	=47	=47	=47	=47	=47	=47
2c	cre-	2c]	.	0g	in	2ee]	.
2c	-dent	2c	-mnes	.	.	2ee	-mnes
[1C	in	2c	cre-	.	.	2ee	cre-
.	.	2c	-dent	.	.	2ee	-dent
=48	=48	=48	=48	=48	=48	=48	=48
1C]	.	1c	in	1G	e-	1ee	in
1D	e-	2A	e-	1F	.	1ff	e-
.	.	2B	.	.	.	.	.
=49	=49	=49	=49	=49	=49	=49	=49
1C	-um,	0c	-um,	2G	-um,	1ee	-um,
.	.	.	.	1g	in	.	.
2r	.	.	.	.	.	2r	.
2c	o-	.	.	2g	e-	[2ee	in
=50	=50	=50	=50	=50	=50	=50	=50
2c	-mnes	2r	.	1g	-um,	2ee]	.
2B	cre-	2d	in	.	.	2dd	e-
2c	-dent	2c	e-	2r	.	2ee	.
2G	in	2B	.	[2g	in	[2dd	.
=51	=51	=51	=51	=51	=51	=51	=51
1A	e-	1c	.	2g]	.	4dd]	.
.	.	.	.	.	.	4cc	.
.	.	.	.	2f	.	1cc	.
1G	.	1d	.	1g	e-	.	.
.	.	.	.	.	.	2b	.
=52	=52	=52	=52	=52	=52	=52	=52
1C	-um,	0c	-um,	1e	-um,	1cc	-um,
1r	.	.	.	1r	.	1a	et
=53	=53	=53	=53	=53	=53	=53	=53
0r	.	0r	.	1d	et	1.dd	ve-
.	.	.	.	[1g	ve-	.	.
.	.	.	.	.	.	2b	-ni-
=54	=54	=54	=54	=54	=54	=54	=54
0r	.	0r	.	2g]	.	2b	-ent
.	.	.	.	2e	-ni-	2b	Ro-
.	.	.	.	2e	-ent	1cc	-ma-
.	.	.	.	2e	Ro-	.	.
=55	=55	=55	=55	=55	=55	=55	=55
1r	.	1d	et	1f	-ma-	1a	-ni,
1G	et	[1g	ve-	1d	-ni,	1r	.
=56	=56	=56	=56	=56	=56	=56	=56
1.c	ve-	2g]	.	0r	.	0r	.
.	.	2e	-ni-	.	.	.	.
.	.	2e	-ent	.	.	.	.
2A	-ni-	2e	Ro-	.	.	.	.
=57	=57	=57	=57	=57	=57	=57	=57
2A	-ent	1f	-ma-	1r	.	1a	et
2A	Ro-	.	.	.	.	.	.
1B	-ma-	1d	-ni,	1d	et	2.dd	ve-
.	.	.	.	.	.	4dd	-ni-
=58	=58	=58	=58	=58	=58	=58	=58
1G	-ni,	0r	.	2.g	ve-	2b	-ent
.	.	.	.	.	.	2b	Ro-
.	.	.	.	4f	-ni-	.	.
1r	.	.	.	2e	-ent	1cc	-ma-
.	.	.	.	2e	Ro-	.	.
=59	=59	=59	=59	=59	=59	=59	=59
1r	.	1d	et	1f	-ma-	1a	-ni
1G	et	2.g	ve-	1d	-ni,	1r	.
.	.	4e	-ni-	.	.	.	.
=60	=60	=60	=60	=60	=60	=60	=60
2.c	ve-	2e	-ent	0r	.	0r	.
.	.	2e	Ro-	.	.	.	.
4A	-ni-	.	.	.	.	.	.
2A	-ent	1f	-ma-	.	.	.	.
2A	Ro-	.	.	.	.	.	.
=61	=61	=61	=61	=61	=61	=61	=61
1B	-ma-	2d	.	0r	.	1r	.
.	.	2.g	.	.	.	.	.
2G	-ni,	.	.	.	.	1ee	et
.	.	4f	.	.	.	.	.
[2c	Ro-	2e	.	.	.	.	.
=62	=62	=62	=62	=62	=62	=62	=62
2c]	.	1d	.	1r	.	1ff	tol-
2B	.	.	.	.	.	.	.
1c	-ma-	1c	-ni	1g	et	1ee	-lent
=63	=63	=63	=63	=63	=63	=63	=63
1G	-ni	1d	.	2.g	ve-	1dd	no-
.	.	.	.	4f	-ni-	.	.
1A	.	1r	.	2.e	-ent	2.cc	-strum
.	.	.	.	4d	.	4dd	.
=64	=64	=64	=64	=64	=64	=64	=64
1r	.	0r	.	2c	.	2ee	.
.	.	.	.	2d	Ro-	1dd	lo-
1A	et	.	.	1e	-ma-	.	.
.	.	.	.	.	.	2cc#i	.
=65	=65	=65	=65	=65	=65	=65	=65
1B	tol-	1d	et	1d	-ni	1dd	-cum,
2G	-lent	1e	tol-	1r	.	1r	.
[2c	no-	.	.	.	.	.	.
=66	=66	=66	=66	=66	=66	=66	=66
2c]	.	2c	-lent	2r	.	0r	.
2A	-strum	1f	no-	1a	et	.	.
1B	lo-	.	.	.	.	.	.
.	.	2d	-strum	2g	.	.	.
=67	=67	=67	=67	=67	=67	=67	=67
1A	-cum,	1e	lo-	1a	tol-	1r	.
1r	.	2d	.	2f	-lent	1dd	[et
.	.	2B	.	[2g	no-	.	.
=68	=68	=68	=68	=68	=68	=68	=68
0r	.	1c	-cum,	2g]	.	1ee	tol-
.	.	.	.	2e	-strum	.	.
.	.	1A	.	1f	lo-	2cc	-lent
.	.	.	.	.	.	[2ff	no-
=69	=69	=69	=69	=69	=69	=69	=69
1r	.	2r	.	1d	-cum,	2ff]	.
.	.	1d	[et	.	.	2dd	-strum
1A	et	.	.	2r	.	1ee	lo-
.	.	2c	tol-	[2a	no-	.	.
=70	=70	=70	=70	=70	=70	=70	=70
1B	tol-	1d	-lent	2a]	.	1dd	-cum,]
.	.	.	.	2g	-strum	.	.
2A	-lent	2e	no-	2a	.	1r	.
[2d	no-	2f	-strum	2f	.	.	.
=71	=71	=71	=71	=71	=71	=71	=71
2d]	.	1e	lo-	1g	lo-	1ee	et
2c	-strum	.	.	.	.	.	.
[1d	lo-	1d	-cum,]	[1f	-cum,	[1ff	tol-
=72	=72	=72	=72	=72	=72	=72	=72
2d]	.	1r	.	1f]	.	2ff]	.
2c	.	.	.	.	.	2ee	-lent
2B	.	[1d	et	1r	.	2dd	no-
2A	.	.	.	.	.	2cc	-strum
=73	=73	=73	=73	=73	=73	=73	=73
1G	.	1d]	.	1g	et	1b	lo-
[1D	-cum	[1f	tol-	[1a	tol-	[1a	-cum,
=74	=74	=74	=74	=74	=74	=74	=74
1D]	.	2f]	.	2a]	.	1a]	.
.	.	2e	-lent	2g	-lent	.	.
1r	.	2d	no-	2f	no-	1r	.
.	.	2c	-strum	2e	-strum	.	.
=75	=75	=75	=75	=75	=75	=75	=75
0r	.	1B	lo-	1d	lo-	2r	.
.	.	.	.	.	.	2dd	et
.	.	[1A	-cum,	1e	.	2dd	tol-
.	.	.	.	.	.	2cc	-lent
=76	=76	=76	=76	=76	=76	=76	=76
1D	et	1A]	.	[0d	-cum	1.dd	no-
[1G	gen-	1r	.	.	.	.	.
.	.	.	.	.	.	2cc	.
=77	=77	=77	=77	=77	=77	=77	=77
2G]	.	2r	.	1d]	.	2b	.
2F	.	2A	no-	.	.	2a	.
2E	.	1B	-strum	1r	.	2g	.
2D	.	.	.	.	.	2f	.
=78	=78	=78	=78	=78	=78	=78	=78
1C	.	1c	lo-	1g	et	1e	-strum
1D	-tem,	1A	.	1f	gen-	1d	lo-
=79	=79	=79	=79	=79	=79	=79	=79
1r	.	2B	.	1d	.	0dd	-cum
.	.	2G	.	.	.	.	.
1G	et	1d	.	[1g	.	.	.
=80	=80	=80	=80	=80	=80	=80	=80
1.c	tol-	0e	-cum	2g]	.	0r	.
.	.	.	.	2f	.	.	.
.	.	.	.	2e	.	.	.
2B	-lent	.	.	2d	.	.	.
=81	=81	=81	=81	=81	=81	=81	=81
2A	no-	2r	.	2c	.	0r	.
2G	-strum	2.d	et	2B	.	.	.
2F	lo-	.	.	2A	.	.	.
.	.	4c	.	.	.	.	.
2E	.	[2c	gen-	2G	.	.	.
=82	=82	=82	=82	=82	=82	=82	=82
1D	.	2c]	.	1F	.	1dd	et
.	.	2B	-tem,	.	.	.	.
[1C	-cum	[1c	gen-	1G	.	[1ee	gen-
=83	=83	=83	=83	=83	=83	=83	=83
1C]	.	2c]	.	0g	-tem,	2ee]	.
.	.	2d	.	.	.	2dd	.
1r	.	1e	.	.	.	2cc	.
.	.	.	.	.	.	2b	.
=84	=84	=84	=84	=84	=84	=84	=84
1D	et	2f	.	1r	.	2a	.
.	.	2d	.	.	.	1dd	.
1A	gen-	1e	.	[1a	gen-	.	.
.	.	.	.	.	.	2cc#i	.
=85	=85	=85	=85	=85	=85	=85	=85
1D	-tem,	1.d	.	2a]	.	0dd	-tem,
.	.	.	.	2g	.	.	.
[1d	et	.	.	2f	.	.	.
.	.	2c	.	2e	.	.	.
=86	=86	=86	=86	=86	=86	=86	=86
2d]	.	2B	.	1d	-tem,	0r	.
2c	.	2A	.	.	.	.	.
2B	.	1G	-tem,	2r	.	.	.
2A	.	.	.	[2e	gen-	.	.
=87	=87	=87	=87	=87	=87	=87	=87
2G	.	1r	.	4e]	.	1r	.
.	.	.	.	4d	.	.	.
2F	.	.	.	1d	.	.	.
1E	gen-	1g	et	.	.	1g	et
.	.	.	.	2c#i	.	.	.
=88	=88	=88	=88	=88	=88	=88	=88
[0D	-tem,	1.f	gen-	1d	-tem,	1.dd	gen-
.	.	.	.	[1f	gen-	.	.
.	.	2e	.	.	.	2cc	.
=89	=89	=89	=89	=89	=89	=89	=89
1D]	.	2d	.	2f]	.	2b	.
.	.	2c	.	2e	.	2a	.
[1G	et	2B	.	2d	.	1g	.
.	.	2A	.	2c	.	.	.
=90	=90	=90	=90	=90	=90	=90	=90
1G]	.	1G	-tem,	2B	.	[0ddl	-tem.’
.	.	.	.	2A	.	.	.
[1d	gen-	1r	.	1G	.	.	.
=91	=91	=91	=91	=91	=91	=91	=91
2d]	.	1G	et	1.d	.	0dd_	.
2c	.	.	.	.	.	.	.
2B	.	[1d	gen-	.	.	.	.
2A	.	.	.	2c	.	.	.
=92	=92	=92	=92	=92	=92	=92	=92
0G	.	2d]	.	2B	.	0dd_	.
.	.	2c	.	2G	.	.	.
.	.	1B	.	1g	.	.	.
=93	=93	=93	=93	=93	=93	=93	=93
00D	-tem.’	00A	-tem.’	00f	-tem.’	00dd]	.
=94||	=94||	=94||	=94||	=94||	=94||	=94||	=94||
*M2/1	*	*M2/1	*	*M2/1	*	*M2/1	*
*met(C|)	*	*met(C|)	*	*met(C|)	*	*met(C|)	*
!!section: Secunda pars: Unus autem
!!!OMD: Secunda pars: Unus autem
0d	U-	0ryy	.	0ryy	.	0ryy	.
=95	=95	=95	=95	=95	=95	=95	=95
1B	-nus	0d	U-	0r	.	0r	.
[1d	au-	.	.	.	.	.	.
=96	=96	=96	=96	=96	=96	=96	=96
2d]	.	1B	-nus	0d	U-	0r	.
2c	.	.	.	.	.	.	.
2B	.	[1d	au-	.	.	.	.
2A	.	.	.	.	.	.	.
=97	=97	=97	=97	=97	=97	=97	=97
0G	-tem,	2d]	.	1B	-nus	0dd	U-
.	.	2c	.	.	.	.	.
.	.	2B	.	[1d	au-	.	.
.	.	2A	.	.	.	.	.
=98	=98	=98	=98	=98	=98	=98	=98
0r	.	0G	-tem,	2d]	.	1b	-nus
.	.	.	.	2c	.	.	.
.	.	.	.	2B	.	[1dd	au-
.	.	.	.	2A	.	.	.
=99	=99	=99	=99	=99	=99	=99	=99
0G	u-	2.B	[u-	0G	-tem,	2dd]	.
.	.	.	.	.	.	2cc	.
.	.	4c	.	.	.	.	.
.	.	1d	.	.	.	2b	.
.	.	.	.	.	.	2a	.
=100	=100	=100	=100	=100	=100	=100	=100
1E	-nus	1e	-nus	0r	.	0g	-tem
[1G	au-	2.d	au-	.	.	.	.
.	.	4c	.	.	.	.	.
=101	=101	=101	=101	=101	=101	=101	=101
2G]	.	2B	.	1.g	au-	0r	.
2F	.	2A	.	.	.	.	.
2E	.	1G	-tem]	.	.	.	.
2D	.	.	.	2f	.	.	.
=102	=102	=102	=102	=102	=102	=102	=102
1C	-tem	2.c	ex	2e	.	1.gg	ex
.	.	.	.	2d	.	.	.
.	.	4d	.	.	.	.	.
[1c	ex	2.e	.	1c	-tem	.	.
.	.	.	.	.	.	2ff	i-
.	.	4f	.	.	.	.	.
=103	=103	=103	=103	=103	=103	=103	=103
1c]	.	1g	.	2r	.	1ee	.
.	.	.	.	1g	ex	.	.
1B	.	1G	i-	.	.	1dd	.
.	.	.	.	4f	.	.	.
.	.	.	.	4e	.	.	.
=104	=104	=104	=104	=104	=104	=104	=104
0A	i-	0c	-psis,	2f	.	1.cc	.
.	.	.	.	1g	i-	.	.
.	.	.	.	2f#i	.	4b	.
.	.	.	.	.	.	4a	.
=105	=105	=105	=105	=105	=105	=105	=105
1G	-psis,	1d	.	1g	-psis,	1b	-psis,
2r	.	2r	.	2r	.	2r	.
[2G	Ca-	[2d	Ca-	[2g	Ca-	[2b	Ca-
=106	=106	=106	=106	=106	=106	=106	=106
2G]	.	2d]	.	2g]	.	2b]	.
2G	-i-	2d	-i-	2g	-i-	2b	-i-
1G	-phas	1d	-phas	1g	-phas	1b	-phas
=107	=107	=107	=107	=107	=107	=107	=107
2.E	no-	2.e	no-	2.g	no-	2.b	no-
4F	-mi-	4d	-mi-	4g	-mi-	4b	-mi-
1G	-ne,	1d	-ne,	1g	-ne,	1b	-ne,
=108	=108	=108	=108	=108	=108	=108	=108
2r	.	2r	.	2r	.	2r	.
1C	Ca-	1c	Ca-	1g	[Ca-	1ee	Ca-
2C	-i-	2c	-i-	2g	-i-	2ee	-i-
=109	=109	=109	=109	=109	=109	=109	=109
0C	-phas	0c	-phas	0g	-phas	0ee	-phas
=110	=110	=110	=110	=110	=110	=110	=110
1.F	no-	1.c	no-	1.a	no-	1.ff	no-
2C	-mi-	2c	-mi-	2g	-mi-	2ee	-mi-
=111	=111	=111	=111	=111	=111	=111	=111
1C	-ne,	0c	-ne,	2g	-ne,]	0ee	-ne,
.	.	.	.	2g	cum	.	.
2r	.	.	.	1a	es-	.	.
2c	cum	.	.	.	.	.	.
=112	=112	=112	=112	=112	=112	=112	=112
2d	es-	0r	.	2f	-set	0r	.
2B	-set	.	.	2g	pon-	.	.
1c	pon-	.	.	4e	.	.	.
.	.	.	.	4d	.	.	.
.	.	.	.	[2g	.	.	.
=113	=113	=113	=113	=113	=113	=113	=113
1A	-ti-	2r	.	2g]	.	1r	.
.	.	2c	cum	2f#i	-ti-	.	.
1G	-fex,	2d	es-	1g	-fex,	2r	.
.	.	2B	-set	.	.	2dd	cum
=114	=114	=114	=114	=114	=114	=114	=114
1r	.	2c	pon-	1r	.	2ee	es-
.	.	2A	-ti-	.	.	2cc	-set
2r	.	1G	-fex,	2r	.	2dd	pon-
2E	cum	.	.	2g	cum	2b	-ti-
=115	=115	=115	=115	=115	=115	=115	=115
2F	es-	2c	[cum	2a	es-	1a	-fex,
2D	-set	2d	es-	2f	-set	.	.
2E	pon-	2B	-set	2g	pon-	2r	.
2C	-ti-	2c	pon-	2e	-ti-	2cc	[cum
=116	=116	=116	=116	=116	=116	=116	=116
1G	-fex,	2B	-ti-	1d	-fex,	2dd	es-
.	.	2G	-fex,]	.	.	2b	-set
2r	.	2r	.	2c	cum	2cc	pon-
2F	cum	[2d	[cum	2d	es-	2a	-ti-
=117	=117	=117	=117	=117	=117	=117	=117
2G	es-	2d]	.	2B	-set	1g	-fex,]
2E	-set	2e	es-	2G	pon-	.	.
2F	pon-	2c	-set	2A	-ti-	1r	.
2D	-ti-	2d	pon-	2B	.	.	.
=118	=118	=118	=118	=118	=118	=118	=118
2C	-fex,	1e	-ti-	1c	-fex,	2r	.
2c	cum	.	.	.	.	2ee	cum
2d	es-	1d	-fex]	2r	.	2ff	es-
2B	-set	.	.	[2g	pon-	2dd	-set
=119	=119	=119	=119	=119	=119	=119	=119
2c	pon-	1r	.	2g]	.	2ee	pon-
2A	-ti-	.	.	2f	-ti-	2cc	-ti-
2G	-fex	1d	an-	2g	-fex	2b	-fex
2D	an-	.	.	2f	an-	2dd	an-
=120	=120	=120	=120	=120	=120	=120	=120
2D	-ni	2d	-ni	2a	-ni	2dd	-ni
2D	il-	2d	il-	2a	il-	2dd	il-
1A	-li-	1e	-li-	1a	-li-	2dd	-li-
.	.	.	.	.	.	2cc#i	.
=121	=121	=121	=121	=121	=121	=121	=121
2D	-us,	1d	-us,	2f	-us,	0dd	-us,
2d	an-	.	.	2d	an-	.	.
2d	-ni	2r	.	2f	-ni	.	.
2B	il-	2G	di-	2g	il-	.	.
=122	=122	=122	=122	=122	=122	=122	=122
4c	-li-	2A	-xit	2e	-li-	2r	.
4B	.	.	.	.	.	.	.
4A	.	2.c	e-	1.c	.	2a	di-
4G	.	.	.	.	.	.	.
1F	-us,	.	.	.	.	2a	-xit
.	.	4B	.	.	.	.	.
.	.	4A	.	.	.	[2cc	e-
.	.	4G	.	.	.	.	.
=123	=123	=123	=123	=123	=123	=123	=123
2r	.	2.F	.	1f	-us,	4cc]	.
.	.	.	.	.	.	4b	.
1D	di-	.	.	.	.	4a	.
.	.	4G	.	.	.	4g	.
.	.	2A	.	2r	.	2f	.
2D	-xit	2d	.	[2f	di-	[2a	.
=124	=124	=124	=124	=124	=124	=124	=124
2F	e-	2c	.	2f]	.	4a]	.
.	.	.	.	.	.	4g	.
2G	.	2B	.	2e	-xit	1g	.
1D	.	1A	.	1d	e-	.	.
.	.	.	.	.	.	2f#i	.
=125	=125	=125	=125	=125	=125	=125	=125
0G	-is,	0G	-is,	0d	-is,	0g	-is,
=126	=126	=126	=126	=126	=126	=126	=126
2r	.	2r	.	2r	.	2r	.
1G	‘Vos	1d	‘Vos	1g	‘Vos	1b	‘Vos
2G	ne-	2d	ne-	2g	ne-	2b	ne-
=127	=127	=127	=127	=127	=127	=127	=127
2G	-sci-	2d	-sci-	2g	-sci-	2b	-sci-
2G	-tis	2d	-tis	2g	-tis	2b	-tis
1G	quic-	2.B	quic-	1g	quic-	1dd	quic-
.	.	4c	.	.	.	.	.
=128	=128	=128	=128	=128	=128	=128	=128
1G	-quam,	1d	-quam,	1g	-quam,	1b	-quam,
2r	.	2r	.	2r	.	2r	.
2G	nec	2d	nec	2g	nec	2dd	nec
=129	=129	=129	=129	=129	=129	=129	=129
2G	co-	2d	co-	2g	co-	2dd	co-
2G	-gi-	2d	-gi-	2g	-gi-	2b	-gi-
1A	-ta-	1c	-ta-	2e	-ta-	1a	-ta-
.	.	.	.	2f	.	.	.
=130	=130	=130	=130	=130	=130	=130	=130
[0G	-tis,	[0d	-tis,	0g	-tis,	1b	-tis,
.	.	.	.	.	.	2r	.
.	.	.	.	.	.	[2dd	qui-
=131	=131	=131	=131	=131	=131	=131	=131
0G]	.	0d]	.	2r	.	2dd]	.
.	.	.	.	1g	qui-	2dd	-a
.	.	.	.	.	.	2b	ex-
.	.	.	.	2g	-a	2b	-pe-
=132	=132	=132	=132	=132	=132	=132	=132
0r	.	0r	.	2e	ex-	1g	-dit
.	.	.	.	2e	-pe-	.	.
.	.	.	.	1c	-dit	1cc	vo-
=133	=133	=133	=133	=133	=133	=133	=133
1r	.	2r	.	1f	vo-	1a	-bis
.	.	1d	qui-	.	.	.	.
2r	.	.	.	1d	-bis	1r	.
[2G	qui-	2d	-a	.	.	.	.
=134	=134	=134	=134	=134	=134	=134	=134
2G]	.	2B	ex-	0r	.	0r	.
2G	-a	2B	-pe-	.	.	.	.
2E	ex-	1G	-dit	.	.	.	.
2E	-pe-	.	.	.	.	.	.
=135	=135	=135	=135	=135	=135	=135	=135
1C	-dit	1c	vo-	0r	.	1r	.
1F	vo-	1A	-bis	.	.	1a	ut
=136	=136	=136	=136	=136	=136	=136	=136
1D	-bis	0r	.	1d	ut	2.dd	u-
.	.	.	.	.	.	4cc	-nus
1r	.	.	.	2.g	u-	2b	mo-
.	.	.	.	.	.	2a	-ri-
.	.	.	.	4f	-nus	.	.
=137	=137	=137	=137	=137	=137	=137	=137
0r	.	0r	.	2e	mo-	1g	-a-
.	.	.	.	2d	-ri-	.	.
.	.	.	.	1c	-a-	1cc	.
=138	=138	=138	=138	=138	=138	=138	=138
1r	.	1d	ut	1f	.	1a	-tur,
1G	ut	2.g	u-	1d	-tur,	1r	.
.	.	4f	-nus	.	.	.	.
=139	=139	=139	=139	=139	=139	=139	=139
2.c	u-	2e	mo-	0r	.	0r	.
.	.	2d	-ri-	.	.	.	.
4B	-nus	.	.	.	.	.	.
2A	mo-	1c	-a-	.	.	.	.
2G	-ri-	.	.	.	.	.	.
=140	=140	=140	=140	=140	=140	=140	=140
1F	-a-	1f	.	1r	.	1a	ut
1G	.	[1d	-tur …	1g	ut	1b	u-
=141	=141	=141	=141	=141	=141	=141	=141
1D	-tur	1d]	.	2.f	u-	2.a	-nus
.	.	.	.	4g	-nus	4b	.
1r	.	1r	.	2a	mo-	2cc	.
.	.	.	.	2d	-ri-	[2dd	mo-
=142	=142	=142	=142	=142	=142	=142	=142
0r	.	0r	.	1g	-a-	2dd]	.
.	.	.	.	.	.	2b	-ri-
.	.	.	.	2e	.	2.ee	-a-
.	.	.	.	[2a	.	.	.
.	.	.	.	.	.	4dd	.
=143	=143	=143	=143	=143	=143	=143	=143
1r	.	1r	.	4a]	.	4cc	.
.	.	.	.	4g	.	4b	.
.	.	.	.	4f	.	2a	.
.	.	.	.	4e	.	.	.
1G	ho-	2r	.	2d	-tur	1b	.
.	.	[2d	pro	[2g	ho-	.	.
=144	=144	=144	=144	=144	=144	=144	=144
1A	.	2d]	.	2g]	.	1a	-tur
.	.	2c	po-	2f#i	.	.	.
1G	-mo	1d	-pu-	1g	.	1r	.
=145	=145	=145	=145	=145	=145	=145	=145
2C	pro	1e	.	[0g	-mo	1r	.
1c	po-	.	.	.	.	.	.
.	.	1d	-lo,	.	.	1dd	ho-
2B	.	.	.	.	.	.	.
=146	=146	=146	=146	=146	=146	=146	=146
1c	.	2r	.	0g_	.	1ee	.
.	.	2c	pro	.	.	.	.
2G	.	1d	po-	.	.	1dd	-mo
2G	-pu-	.	.	.	.	.	.
=147	=147	=147	=147	=147	=147	=147	=147
1C	-lo,	1e	.	0g]	.	2r	.
.	.	.	.	.	.	2cc	pro
2r	.	2d	.	.	.	2dd	po-
[2c	pro	[2c	.	.	.	[2ee	.
=148	=148	=148	=148	=148	=148	=148	=148
2c]	.	2c]	.	2r	.	4ee]	.
.	.	.	.	.	.	4dd	.
2B	po-	2d	.	2g	pro	2.dd	.
2c	.	2e	.	2e	po-	.	.
.	.	.	.	.	.	4cc	.
2A	.	2c	.	2f	-pu-	[2cc	-pu-
=149	=149	=149	=149	=149	=149	=149	=149
2G	.	1d	-pu-	0g	-lo	4cc]	.
.	.	.	.	.	.	4b	.
2G	-pu-	.	.	.	.	2b	.
[1C	-lo	[1c	-lo	.	.	[1cc	-lo
=150	=150	=150	=150	=150	=150	=150	=150
1C]	.	1c]	.	2r	.	1cc]	.
.	.	.	.	1g	ut	.	.
1r	.	1r	.	.	.	2r	.
.	.	.	.	2f	non	[2dd	ut
=151	=151	=151	=151	=151	=151	=151	=151
0r	.	0r	.	2g	to-	2dd]	.
.	.	.	.	2e	-ta	2cc	non
.	.	.	.	2d	gens	2dd	to-
.	.	.	.	2g	pe-	2b	-ta
=152	=152	=152	=152	=152	=152	=152	=152
0r	.	0r	.	2f	.	2a	gens
.	.	.	.	2e	.	1cc	pe-
.	.	.	.	2f	.	.	.
.	.	.	.	2d	-re-	2b	.
=153	=153	=153	=153	=153	=153	=153	=153
2r	.	1r	.	1c	-at,	2cc	-re-
1c	ut	.	.	.	.	2a	.
.	.	2r	.	1r	.	1g	-at,
2B	non	[2g	ut	.	.	.	.
=154	=154	=154	=154	=154	=154	=154	=154
2c	to-	2g]	.	0r	.	0r	.
2A	-ta	2f	non	.	.	.	.
2G	.	2g	to-	.	.	.	.
2c	gens	2e	-ta	.	.	.	.
=155	=155	=155	=155	=155	=155	=155	=155
2.B-X	pe-	2d	gens	1r	.	0r	.
.	.	2g	.	.	.	.	.
4A	.	.	.	.	.	.	.
2B-i	.	2f	.	2r	.	.	.
2G	.	2e	pe-	2g	to-	.	.
=156	=156	=156	=156	=156	=156	=156	=156
2F	.	2f	.	1.a	-ta	0r	.
2G	.	2d	-re-	.	.	.	.
1A	.	1c	-at,	.	.	.	.
.	.	.	.	2g	gens	.	.
=157	=157	=157	=157	=157	=157	=157	=157
1D	-re-	2r	.	1f	pe-	1r	.
.	.	1d	ut	.	.	.	.
1A	-at,	.	.	1e	-re-	2r	.
.	.	2c	non	.	.	[2a	ut
=158	=158	=158	=158	=158	=158	=158	=158
1r	.	2d	to-	1d	-at,	2a]	.
.	.	2B	-ta	.	.	2g	non
2r	.	2A	gens	2r	.	2a	to-
2D	pe-	2d	pe-	2d	pe-	2f	-ta
=159	=159	=159	=159	=159	=159	=159	=159
2A	.	2c	.	2e	.	2e	gens
2F	.	2A	.	2f	.	2.a	pe-
2G	.	2B	.	2d	.	.	.
.	.	.	.	.	.	4g	.
2C	-re-	2c	.	2e	.	[2g	.
=160	=160	=160	=160	=160	=160	=160	=160
1D	-at.’	1A	-re-	1d	-re-	2g]	.
.	.	.	.	.	.	2f#i	-re-
2r	.	2G	-at.’	2d	-at.’	2g	-at.’
2G	Ab	2d	Ab	2g	Ab	2b	Ab
=161	=161	=161	=161	=161	=161	=161	=161
2G	il-	2d	il-	2g	il-	2b	il-
2G	-lo	2d	-lo	2g	-lo	2b	-lo
2G	er-	2d	er-	2g	er-	2b	er-
2G	-go	2d	-go	2g	-go	2b	-go
=162	=162	=162	=162	=162	=162	=162	=162
1c	di-	1e	di-	1g	di-	1cc	di-
[1G	-e,	[1d	-e,	1g	-e,	[1b	-e,
=163	=163	=163	=163	=163	=163	=163	=163
1G]	.	1d]	.	1d	ab	1b]	.
1r	.	1r	.	2c	il-	1r	.
.	.	.	.	2c	-lo	.	.
=164	=164	=164	=164	=164	=164	=164	=164
1G	ab	0r	.	1B	er-	0r	.
2F	il-	.	.	2A	-go	.	.
2F	-lo	.	.	[2d	di-	.	.
=165	=165	=165	=165	=165	=165	=165	=165
1E	er-	0r	.	2d]	.	0r	.
.	.	.	.	2c#i	.	.	.
2D	-go	.	.	2d	.	.	.
[2G	di-	.	.	2B	.	.	.
=166	=166	=166	=166	=166	=166	=166	=166
2G]	.	0r	.	1A	.	1r	.
2F#i	.	.	.	.	.	.	.
1G	.	.	.	2G	-e,	1dd	[ab
.	.	.	.	[2g	di-	.	.
=167	=167	=167	=167	=167	=167	=167	=167
1A	.	1r	.	2g]	.	2cc	il-
.	.	.	.	2f#i	.	2cc	-lo
1G	-e	1g	ab	1g	-e	1b	er-
=168	=168	=168	=168	=168	=168	=168	=168
0r	.	2f	il-	0r	.	2a	-go
.	.	2f	-lo	.	.	1dd	di-
.	.	1e	er-	.	.	.	.
.	.	.	.	.	.	2cc#i	.
=169	=169	=169	=169	=169	=169	=169	=169
0r	.	2d	-go	0r	.	2dd	.
.	.	1g	di-	.	.	2b	.
.	.	.	.	.	.	1a	.
.	.	2f#i	.	.	.	.	.
=170	=170	=170	=170	=170	=170	=170	=170
1r	.	2g	.	0r	.	2g	-e]
.	.	2e	.	.	.	1cc	co-
1G	co-	1d	.	.	.	.	.
.	.	.	.	.	.	2b	-gi-
=171	=171	=171	=171	=171	=171	=171	=171
1A	-gi-	1c	-e	1r	.	1cc	-ta-
2F	-ta-	1r	.	1d	co-	2a	-ve-
[2G	-ve-	.	.	.	.	[2b	.
=172	=172	=172	=172	=172	=172	=172	=172
2G]	.	0r	.	1e	-gi-	2b]	.
2E	.	.	.	.	.	2g	.
1F	.	.	.	2c	-ta-	1a	.
.	.	.	.	[2d	-ve-	.	.
=173	=173	=173	=173	=173	=173	=173	=173
2G	.	1r	.	4d]	.	1g	-runt,
.	.	.	.	4G	.	.	.
2E	.	.	.	1c	.	.	.
1D	.	1d	co-	.	.	1r	.
.	.	.	.	2B	.	.	.
=174	=174	=174	=174	=174	=174	=174	=174
1C	-runt,	1e	-gi-	2.c	.	0r	.
.	.	.	.	4d	.	.	.
1r	.	2c	-ta-	2e	.	.	.
.	.	[2d	.	[2f	.	.	.
=175	=175	=175	=175	=175	=175	=175	=175
0r	.	4d]	.	4f]	.	1r	.
.	.	4c	.	4d	.	.	.
.	.	4B	.	2.g	-runt,	.	.
.	.	4A	.	.	.	.	.
.	.	1G	.	.	.	1dd	co-
.	.	.	.	4f	.	.	.
.	.	.	.	4e	.	.	.
.	.	.	.	4d	.	.	.
=176	=176	=176	=176	=176	=176	=176	=176
2r	.	2.g	.	1c	.	1ee	-gi-
1C	co-	.	.	.	.	.	.
.	.	4f	.	.	.	.	.
.	.	2e	.	1r	.	2cc	-ta-
2BB	-gi-	2d	.	.	.	[2dd	-ve-
=177	=177	=177	=177	=177	=177	=177	=177
1C	-ta-	2e	.	0g	co-	4dd]	.
.	.	.	.	.	.	4cc	.
.	.	2c	.	.	.	1cc	.
1G	-ve-	1d	-ve-	.	.	.	.
.	.	.	.	.	.	2b	.
=178	=178	=178	=178	=178	=178	=178	=178
2C	.	0c	-runt,	1e	-gi-	1cc	-runt,
2.c	.	.	.	.	.	.	.
.	.	.	.	1g	-ta-	1r	.
4B	.	.	.	.	.	.	.
4A	.	.	.	.	.	.	.
4G	.	.	.	.	.	.	.
=179	=179	=179	=179	=179	=179	=179	=179
1F	-runt,	0r	.	1a	-ve-	1cc	co-
2r	.	.	.	2f	.	1dd	-gi-
[2G	[co-	.	.	[2g	.	.	.
=180	=180	=180	=180	=180	=180	=180	=180
2G]	.	1r	.	4g]	.	2b	-ta-
.	.	.	.	4f	.	.	.
2.A	-gi-	.	.	4e	.	2.cc	-ve-
.	.	.	.	4d	.	.	.
.	.	2r	.	1c	.	.	.
4G	.	.	.	.	.	4b	.
4F	.	2A	co-	.	.	4a	.
4E	.	.	.	.	.	4g	.
=181	=181	=181	=181	=181	=181	=181	=181
2D	.	2B	-gi-	2d	.	4f	.
.	.	.	.	.	.	4d	.
2C	-ta-	2c	-ta-	2e	.	1g	.
1D	-ve-	1A	-ve-	1d	-runt,	.	.
.	.	.	.	.	.	2f#i	.
=182	=182	=182	=182	=182	=182	=182	=182
2E	.	2G	-runt,	0r	.	[0g	-runt,
2C	.	2c	ut	.	.	.	.
1G	-runt,]	2d	in-	.	.	.	.
.	.	2d	-ter-	.	.	.	.
=183	=183	=183	=183	=183	=183	=183	=183
1C	ut	2e	-fi-	2r	.	0g]	.
.	.	2e	-ce-	2c	ut	.	.
1G	in-	1d	-rent	2d	in-	.	.
.	.	.	.	2d	-ter-	.	.
=184	=184	=184	=184	=184	=184	=184	=184
2C	-ter-	1c	e-	2e	-fi-	2r	.
1c	-fi-	.	.	2e	-ce-	2cc	ut
.	.	1G	-um,	1d	-rent	2dd	in-
2B	-ce-	.	.	.	.	2dd	-ter-
=185	=185	=185	=185	=185	=185	=185	=185
1c	-rent	2r	.	1c	e-	2ee	-fi-
.	.	2c	ut	.	.	2ee	-ce-
1G	e-	2d	in-	1B	-um,	1dd	-rent,
.	.	2d	-ter-	.	.	.	.
=186	=186	=186	=186	=186	=186	=186	=186
2C	-um,	2e	-fi-	1r	.	2r	.
2c	ut	2e	-ce-	.	.	2cc	ut
2c	in-	1d	-rent	2r	.	2dd	in-
2B	-ter-	.	.	2g	e-	2dd	-ter-
=187	=187	=187	=187	=187	=187	=187	=187
1c	-fi-	1c	e-	2.e	.	2ee	-fi-
.	.	.	.	.	.	2ee	-ce-
.	.	.	.	4f	.	.	.
1G	-ce-	1B	-um,	1g	.	1dd	-rent
=188	=188	=188	=188	=188	=188	=188	=188
2C	-rent,	2r	.	[0g	.	2cc	.
2c	ut	2c	ut	.	.	2ee	.
2c	in-	2d	in-	.	.	1dd	.
2B	-ter-	2d	-ter-	.	.	.	.
=189	=189	=189	=189	=189	=189	=189	=189
1c	-fi-	2e	-fi-	0g_	.	2cc	.
.	.	2e	-ce-	.	.	1gg	e-
1G	-ce-	1d	-rent	.	.	.	.
.	.	.	.	.	.	2ff	.
=190	=190	=190	=190	=190	=190	=190	=190
1C	-rent	1c	e-	0g]	.	2.ee	.
.	.	.	.	.	.	4dd	.
1C	e-	1e	.	.	.	2.cc	.
.	.	.	.	.	.	8bL	.
.	.	.	.	.	.	8aJ	.
=191	=191	=191	=191	=191	=191	=191	=191
00Gl	-um.	00dl	-um.	00gl	-um.	00bl	-um.
==	==	==	==	==	==	==	==
*-	*-	*-	*-	*-	*-	*-	*-
!!!system-decoration: [*]
!!!RDF**kern: i = editorial accidental
!!!RDF**kern: l = terminal long
!!!PTL: <i> New Senfl Edition: Motets for Four Voices (A-I) </i>
!!!PPR: Hollitzer Verlag
!!!PC#: Denkmäler der Tonkunst in Österreich 163.1
!!!PDT: 2021
!!!PED: Scott Lee Edwards, Stefan Gasch, and Sonja Tröster
!!!YEC: Copyright 2021 Denkmäler der Tonkunst in Österreich
!!!YEM: CC-BY-NC 4.0 (https://creativecommons.org/licenses/by-nc/4.0/legalcode)
!!!EED: Benjamin Ory
!!!EEV: 2024/4/19
!!!verovio: header encoded
!!!header-left: @{PTL}\n@{PED}, eds.\n@{PC#} (@{PDT})&nbsp;\n
!!!header-right:
!!!header-center:
